X: 11
T:Balance the Straw, Fieldtown SMM
M:6/8
L:1/8
A:Fieldtown
P:A(AB)4
K:G
P:A
|:D|G2B BAB|c2A ABc|ded cBA|B2G G2:|
P:B
|:B/c/ |d2d d2B|c2B B2A|d2d dBG|B2A A2D|
G2B BAB|c2A ABc|ded cBA|B2G G2:|
